; generated by PrusaSlicer 2.5.0+win64 on 2022-12-23 at 23:35:48 UTC


;
;
; 

; external perimeters extrusion width = 0.45mm
; perimeters extrusion width = 0.45mm
; infill extrusion width = 0.45mm
; solid infill extrusion width = 0.45mm
; top infill extrusion width = 0.40mm
; support material extrusion width = 0.35mm
; first layer extrusion width = 0.42mm

M73 P0 R101
M73 Q0 S101
M201 X1000 Y1000 Z200 E5000 ; sets maximum accelerations, mm/sec^2
M203 X200 Y200 Z12 E120 ; sets maximum feedrates, mm / sec
M204 P1250 R1250 T1250 ; sets acceleration (P, T) and retract acceleration (R), mm/sec^2
M205 X8.00 Y8.00 Z0.40 E4.50 ; sets the jerk limits, mm/sec
M205 S0 T0 ; sets the minimum extruding and travel feed rate, mm/sec
M107
;TYPE:Custom
M862.3 P "MK3S" ; printer model check
M862.1 P0.4 ; nozzle diameter check
M115 U3.11.0 ; tell printer latest fw version
G90 ; use absolute coordinates
M83 ; extruder relative mode
M104 S215 ; set extruder temp
M140 S60 ; set bed temp
M190 S60 ; wait for bed temp
M109 S215 ; wait for extruder temp
G28 W ; home all without mesh bed level
G80 ; mesh bed leveling

G1 Z0.2 F720
G1 Y-3 F1000 ; go outside print area
G92 E0
G1 X60 E9 F1000 ; intro line
G1 X100 E12.5 F1000 ; intro line

G92 E0
M221 S95

; Don't change E values below. Excessive value can damage the printer.
M907 E430 ; set extruder motor current
G21 ; set units to millimeters
G90 ; use absolute coordinates
M83 ; use relative distances for extrusion
M900 K0.05 ; Filament gcode LA 1.5
M900 K30 ; Filament gcode LA 1.0
M107
;LAYER_CHANGE
;Z:0.2
;HEIGHT:0.2
;BEFORE_LAYER_CHANGE
G92 E0.0
;0.2


G1 E-.8 F2100
G1 Z.4 F720
;AFTER_LAYER_CHANGE
;0.2
G1 X80.964 Y72.844 F10800
G1 Z.2 F720
G1 E.8 F2100
M204 S800
;TYPE:Skirt/Brim
;WIDTH:0.42
G1 F1200
G1 X81.987 Y72.473 E.03412
G1 X160.951 Y63.214 E2.49282
G1 X162.295 Y63.451 E.04278
M73 P0 R100
G1 X163.129 Y64.149 E.03411
G1 X166.256 Y68.339 E.16393
G1 X168.927 Y72.834 E.16393
G1 X171.112 Y77.584 E.16393
G1 X172.788 Y82.536 E.16393
G1 X173.937 Y87.637 E.16393
G1 X174.545 Y92.829 E.16393
G1 X174.606 Y98.057 E.16393
G1 X174.12 Y103.263 E.16393
G1 X173.092 Y108.389 E.16393
G1 X171.532 Y113.38 E.16393
G1 X169.459 Y118.179 E.16392
G1 X166.894 Y122.735 E.16394
G1 X163.867 Y126.998 E.16393
G1 X160.41 Y130.92 E.16393
G1 X156.753 Y134.3 E.15613
G1 X152.571 Y137.437 E.16393
G1 X148.083 Y140.12 E.16393
G1 X142.998 Y142.447 E.17534
G1 X138.151 Y144.074 E.1603
G1 X133.048 Y145.211 E.16393
G1 X127.854 Y145.807 E.16393
G1 X122.625 Y145.855 E.16394
G1 X117.421 Y145.357 E.16393
G1 X112.297 Y144.316 E.16393
G1 X107.311 Y142.744 E.16393
G1 X102.516 Y140.66 E.16393
G1 X97.966 Y138.084 E.16393
G1 X93.711 Y135.047 E.16393
G1 X89.796 Y131.581 E.16393
G1 X86.426 Y127.915 E.15613
G1 X83.16 Y123.518 E.17173
G1 X80.511 Y119.011 E.16393
G1 X78.44 Y114.482 E.15613
G1 X76.696 Y109.29 E.17173
G1 X75.571 Y104.184 E.16393
G1 X75.003 Y99.237 E.15613
G1 X74.951 Y93.761 E.17173
G1 X75.426 Y88.804 E.15613
G1 X76.453 Y83.677 E.16393
G1 X78.099 Y78.453 E.17173
G1 X80.084 Y73.887 E.15613
G1 X80.925 Y72.89 E.0409
M204 S1000
; printing object tailwhole.stl id:0 copy 0
;WIPE_START
G1 F8640
G1 X81.987 Y72.473 E-.26334
G1 X84.123 Y72.223 E-.49666
;WIPE_END
G1 E-.04 F2100
G1 Z.6 F720
G1 X152.354 Y73.724 F10800
G1 Z.2 F720
G1 E.8 F2100
M204 S800
;TYPE:Perimeter
;WIDTH:0.419999
G1 F1200
G1 X152.344 Y73.556 E.00529
G1 X152.22 Y73.334 E.00795
G1 X150.018 Y70.908 E.10274
G1 X147.778 Y68.84 E.09559
G1 X147.187 Y68.387 E.02334
G1 X146.678 Y68.044 E.01923
G1 X147.752 Y67.947 E.03381
G1 X160.87 Y66.41 E.41411
G1 X163.561 Y69.998 E.14064
G1 X166.073 Y74.201 E.15354
G1 X168.131 Y78.645 E.15354
G1 X169.712 Y83.279 E.15354
G1 X170.8 Y88.054 E.15354
G1 X171.347 Y92.626 E.1444
G1 X171.386 Y93.207 E.01825
G1 X171.452 Y97.812 E.1444
G1 X171.008 Y102.689 E.15354
G1 X170.057 Y107.492 E.15354
G1 X168.608 Y112.17 E.15354
G1 X166.677 Y116.67 E.15354
G1 X164.286 Y120.943 E.15354
G1 X161.461 Y124.943 E.15354
G1 X158.232 Y128.625 E.15354
G1 X154.636 Y131.948 E.15354
G1 X150.711 Y134.877 E.15354
G1 X146.502 Y137.379 E.15354
G1 X142.053 Y139.426 E.15354
G1 X137.415 Y140.997 E.15354
G1 X132.638 Y142.073 E.15354
G1 X127.775 Y142.643 E.15354
G1 X122.878 Y142.701 E.15354
G1 X118.003 Y142.246 E.15354
G1 X113.201 Y141.283 E.15354
G1 X108.527 Y139.823 E.15354
G1 X104.032 Y137.882 E.15354
G1 X99.764 Y135.48 E.15354
G1 X95.771 Y132.645 E.15354
G1 X92.097 Y129.408 E.15354
G1 X88.782 Y125.804 E.15354
G1 X85.863 Y121.872 E.15354
G1 X83.371 Y117.657 E.15354
G1 X81.334 Y113.204 E.15354
G1 X79.775 Y108.562 E.15354
G1 X78.71 Y103.782 E.15354
G1 X78.151 Y98.917 E.15354
G1 X78.105 Y94.021 E.15354
G1 X78.572 Y89.146 E.15354
G1 X79.546 Y84.347 E.15354
G1 X81.017 Y79.677 E.15354
G1 X82.805 Y75.563 E.14064
G1 X95.94 Y74.023 E.41465
G1 X96.985 Y73.862 E.03316
G1 X96.674 Y74.224 E.01498
G1 X95.772 Y75.357 E.04541
G1 X95.407 Y75.899 E.02048
G1 X93.356 Y79.261 E.1235
G1 X91.536 Y83.24 E.13718
G1 X90.244 Y87.316 E.13405
G1 X89.529 Y91.02 E.11829
G1 X89.442 Y91.623 E.0191
G1 X89.164 Y95.68 E.1275
G1 X89.387 Y100.036 E.13676
G1 X90.057 Y103.945 E.12438
G1 X90.118 Y104.223 E.0089
G1 X91.313 Y108.211 E.13054
G1 X91.534 Y108.788 E.01937
G1 X92.68 Y111.43 E.0903
G1 X93.001 Y112.112 E.02365
G1 X95.143 Y115.786 E.13334
G1 X97.826 Y119.312 E.13891
G1 X100.193 Y121.76 E.10677
G1 X100.799 Y122.359 E.02673
G1 X103.86 Y124.846 E.12365
G1 X104.496 Y125.297 E.02446
G1 X106.693 Y126.684 E.08146
G1 X107.583 Y127.211 E.03243
G1 X111.411 Y129.034 E.13292
G1 X115.426 Y130.389 E.13288
G1 X119.504 Y131.246 E.13064
G1 X119.924 Y131.301 E.01328
G1 X123.724 Y131.623 E.1196
G1 X124.232 Y131.627 E.01591
G1 X127.972 Y131.495 E.11735
G1 X128.502 Y131.434 E.01671
G1 X132.199 Y130.857 E.11735
G1 X132.669 Y130.744 E.01515
G1 X136.336 Y129.71 E.11945
G1 X140.302 Y128.076 E.13448
G1 X144.092 Y125.944 E.13637
G1 X147.533 Y123.417 E.13384
G1 X150.673 Y120.475 E.13492
G1 X153.4 Y117.212 E.13334
G1 X155.782 Y113.541 E.13722
G1 X157.588 Y109.862 E.12849
G1 X158.868 Y106.283 E.11916
G1 X159.026 Y105.766 E.01696
G1 X159.915 Y101.823 E.12674
G1 X160.356 Y97.44 E.13811
G1 X160.274 Y93.199 E.13299
G1 X159.799 Y89.768 E.1086
G1 X159.656 Y88.859 E.02885
G1 X158.542 Y84.715 E.13458
G1 X158.426 Y84.495 E.00776
G1 X158.195 Y84.332 E.00889
G1 X157.929 Y84.3 E.00838
G1 X148.753 Y85.376 E.2897
G1 X147.215 Y85.336 E.04823
G1 X145.805 Y84.881 E.04645
G1 X144.58 Y84.048 E.04645
G1 X143.639 Y82.904 E.04645
G1 X143.059 Y81.54 E.04645
G1 X142.887 Y80.069 E.04645
G1 X143.136 Y78.609 E.04645
G1 X143.786 Y77.278 E.04645
G1 X144.785 Y76.184 E.04645
G1 X146.052 Y75.415 E.04645
G1 X147.539 Y75.021 E.04823
G1 X151.77 Y74.525 E.13359
G1 X151.996 Y74.448 E.00747
G1 X152.181 Y74.268 E.00809
G1 X152.357 Y73.784 E.01615
M204 S1000
G1 X151.989 Y73.726 F10800
M204 S800
;TYPE:External perimeter
G1 F1200
G1 X151.941 Y73.588 E.00461
G1 X149.774 Y71.197 E.10117
G1 X147.522 Y69.117 E.09612
G1 X146.972 Y68.697 E.02169
G1 X146.491 Y68.372 E.0182
G1 X145.672 Y67.942 E.02899
G1 X145.292 Y67.655 E.01494
G1 X145.729 Y67.604 E.01379
G1 X146.762 Y67.654 E.03243
G1 X147.708 Y67.573 E.02977
G1 X161.041 Y66.01 E.42091
G1 X163.874 Y69.787 E.14806
G1 X166.407 Y74.025 E.15478
G1 X168.481 Y78.504 E.15478
G1 X170.076 Y83.176 E.15478
M73 Q0 S100
G1 X171.172 Y87.989 E.15478
G1 X171.722 Y92.582 E.14502
G1 X171.763 Y93.202 E.01949
G1 X171.829 Y97.827 E.14502
G1 X171.382 Y102.743 E.15478
G1 X170.423 Y107.585 E.15478
G1 X168.962 Y112.3 E.15478
G1 X167.016 Y116.837 E.15478
G1 X164.605 Y121.145 E.15478
G1 X161.757 Y125.177 E.15478
G1 X158.502 Y128.888 E.15478
G1 X154.877 Y132.238 E.15478
G1 X150.921 Y135.191 E.15478
G1 X146.677 Y137.713 E.15478
G1 X142.193 Y139.777 E.15478
G1 X137.517 Y141.36 E.15478
G1 X132.702 Y142.445 E.15478
G1 X127.799 Y143.02 E.15478
G1 X122.863 Y143.078 E.15478
G1 X117.948 Y142.62 E.15478
G1 X113.108 Y141.649 E.15478
G1 X108.396 Y140.177 E.15478
G1 X103.864 Y138.22 E.15478
G1 X99.562 Y135.799 E.15478
G1 X95.537 Y132.941 E.15478
G1 X91.833 Y129.678 E.15478
G1 X88.491 Y126.045 E.15478
G1 X85.549 Y122.081 E.15478
G1 X83.037 Y117.832 E.15478
G1 X80.983 Y113.343 E.15478
G1 X79.411 Y108.663 E.15478
G1 X78.338 Y103.845 E.15478
G1 X77.775 Y98.941 E.15478
G1 X77.728 Y94.005 E.15478
G1 X78.198 Y89.091 E.15478
G1 X79.18 Y84.253 E.15478
G1 X80.663 Y79.545 E.15478
G1 X82.546 Y75.214 E.14806
G1 X95.885 Y73.65 E.42109
G1 X96.878 Y73.5 E.03149
G1 X97.797 Y73.227 E.03008
G1 X98.243 Y73.176 E.01407
G1 X97.986 Y73.504 E.01306
G1 X97.301 Y74.097 E.02842
G1 X96.969 Y74.46 E.01542
G1 X96.084 Y75.567 E.04444
G1 X95.729 Y76.095 E.01995
G1 X93.667 Y79.477 E.1242
G1 X91.988 Y83.148 E.12658
G1 X91.895 Y83.354 E.00707
G1 X90.614 Y87.391 E.13279
G1 X89.899 Y91.091 E.11818
G1 X89.818 Y91.649 E.01766
G1 X89.54 Y95.728 E.1282
G1 X89.759 Y99.972 E.13324
G1 X90.48 Y104.115 E.13184
G1 X91.665 Y108.076 E.12966
G1 X91.88 Y108.638 E.01885
G1 X93.026 Y111.28 E.0903
G1 X93.327 Y111.923 E.02226
G1 X95.431 Y115.539 E.13117
G1 X98.097 Y119.05 E.13823
G1 X100.459 Y121.493 E.10653
G1 X101.037 Y122.067 E.02555
G1 X104.069 Y124.531 E.1225
G1 X104.697 Y124.979 E.02419
G1 X106.895 Y126.365 E.08146
G1 X107.746 Y126.871 E.03104
G1 X111.511 Y128.669 E.13082
G1 X115.482 Y130.014 E.13147
G1 X119.581 Y130.877 E.13134
G1 X119.959 Y130.926 E.01193
G1 X123.604 Y131.234 E.11469
G1 X124.218 Y131.25 E.01928
G1 X127.207 Y131.145 E.09376
G1 X128.443 Y131.062 E.03885
G1 X132.141 Y130.484 E.11735
G1 X132.567 Y130.381 E.01374
G1 X136.234 Y129.347 E.11945
G1 X140.158 Y127.727 E.1331
G1 X143.869 Y125.64 E.13353
M73 Q1 S100
G1 X147.277 Y123.14 E.1325
M73 P1 R100
G1 X150.384 Y120.233 E.13341
G1 X153.084 Y117.007 E.1319
G1 X155.466 Y113.335 E.13722
G1 X157.249 Y109.696 E.12707
G1 X158.512 Y106.157 E.11783
G1 X158.658 Y105.683 E.01553
G1 X159.547 Y101.74 E.12674
G1 X159.979 Y97.446 E.13533
G1 X159.9 Y93.251 E.13154
G1 X159.425 Y89.82 E.1086
G1 X159.292 Y88.957 E.02737
G1 X158.177 Y84.812 E.13458
G1 X158.122 Y84.721 E.00335
G1 X157.973 Y84.674 E.00488
G1 X148.77 Y85.753 E.29054
G1 X147.151 Y85.711 E.05078
G1 X145.638 Y85.224 E.04985
G1 X144.323 Y84.329 E.04985
G1 X143.314 Y83.101 E.04985
G1 X142.691 Y81.638 E.04985
G1 X142.506 Y80.059 E.04985
G1 X142.773 Y78.492 E.04985
G1 X143.471 Y77.063 E.04985
G1 X144.543 Y75.889 E.04985
G1 X145.903 Y75.065 E.04985
G1 X147.468 Y74.649 E.05078
G1 X151.726 Y74.15 E.13444
G1 X151.84 Y74.093 E.00399
G1 X151.967 Y73.782 E.01054
M204 S1000
G1 X152.114 Y73.648 F10800
;WIPE_START
G1 F8640
G1 X151.941 Y73.588 E-.04528
G1 X149.862 Y71.294 E-.71472
;WIPE_END
G1 E-.04 F2100
G1 Z.6 F720
G1 X96.014 Y74.126 F10800
G1 Z.2 F720
G1 E.8 F2100
M204 S800
;TYPE:Solid infill
;WIDTH:0.42089
G1 F1200
G1 X96.224 Y74.335 E.00932
G1 X95.986 Y74.632 E.01195
G1 X95.691 Y74.337 E.01313
G1 X95.212 Y74.393 E.01514
G1 X95.749 Y74.929 E.02384
G1 X95.517 Y75.232 E.01198
G1 X94.734 Y74.449 E.03481
G1 X94.255 Y74.505 E.01514
G1 X95.301 Y75.551 E.04647
G1 X95.091 Y75.875 E.01215
G1 X93.777 Y74.561 E.05841
G1 X93.299 Y74.617 E.01514
G1 X94.889 Y76.207 E.07067
G1 X94.686 Y76.539 E.01222
G1 X92.82 Y74.673 E.08293
G1 X92.342 Y74.73 E.01514
G1 X94.483 Y76.871 E.09519
G1 X94.281 Y77.203 E.01222
G1 X91.863 Y74.786 E.10744
G1 X91.385 Y74.842 E.01514
G1 X94.078 Y77.535 E.1197
G1 X93.875 Y77.867 E.01222
G1 X90.906 Y74.898 E.13196
G1 X90.428 Y74.954 E.01514
G1 X93.673 Y78.199 E.14422
G1 X93.47 Y78.531 E.01222
G1 X89.95 Y75.01 E.15648
G1 X89.471 Y75.066 E.01514
G1 X93.268 Y78.863 E.16874
G1 X93.073 Y79.203 E.01231
G1 X88.993 Y75.122 E.18135
G1 X88.514 Y75.178 E.01514
M73 P1 R99
G1 X92.905 Y79.569 E.19516
G1 X92.737 Y79.936 E.01268
G1 X88.036 Y75.235 E.20897
G1 X87.558 Y75.291 E.01514
G1 X92.57 Y80.303 E.22277
G1 X92.402 Y80.67 E.01268
G1 X87.079 Y75.347 E.23658
G1 X86.601 Y75.403 E.01514
G1 X92.234 Y81.036 E.25039
G1 X92.066 Y81.403 E.01268
G1 X86.122 Y75.459 E.2642
G1 X85.644 Y75.515 E.01514
G1 X91.899 Y81.77 E.27801
G1 X91.731 Y82.137 E.01268
G1 X85.165 Y75.571 E.29182
G1 X84.687 Y75.627 E.01514
G1 X91.563 Y82.504 E.30562
G1 X91.395 Y82.87 E.01268
G1 X84.209 Y75.683 E.31943
G1 X83.73 Y75.74 E.01514
G1 X91.237 Y83.246 E.33366
G1 X91.108 Y83.652 E.01338
G1 X83.252 Y75.796 E.34919
G1 X83 Y75.825 E.00797
G1 X82.923 Y76.002 E.00605
G1 X90.979 Y84.058 E.35807
G1 X90.851 Y84.463 E.01338
G1 X82.761 Y76.374 E.35954
G1 X82.599 Y76.747 E.01277
G1 X90.722 Y84.869 E.36101
G1 X90.593 Y85.275 E.01338
G1 X82.437 Y77.119 E.36248
G1 X82.275 Y77.492 E.01277
G1 X90.464 Y85.681 E.36396
G1 X90.335 Y86.086 E.01338
G1 X82.113 Y77.864 E.36543
G1 X81.951 Y78.237 E.01277
G1 X90.206 Y86.492 E.3669
G1 X90.077 Y86.898 E.01338
G1 X81.789 Y78.61 E.36837
G1 X81.628 Y78.982 E.01277
G1 X89.96 Y87.314 E.37033
G1 X89.873 Y87.762 E.01433
G1 X81.466 Y79.355 E.37367
G1 X81.304 Y79.727 E.01277
G1 X89.786 Y88.21 E.37701
G1 X89.699 Y88.657 E.01433
G1 X81.171 Y80.129 E.37904
G1 X81.043 Y80.536 E.01339
G1 X89.612 Y89.105 E.38087
G1 X89.525 Y89.553 E.01433
G1 X80.915 Y80.942 E.3827
G1 X80.787 Y81.349 E.01339
G1 X89.439 Y90 E.38453
G1 X89.352 Y90.448 E.01433
G1 X80.659 Y81.755 E.38636
G1 X80.531 Y82.162 E.01339
G1 X89.265 Y90.896 E.38819
G1 X89.191 Y91.357 E.01467
G1 X80.403 Y82.568 E.39061
G1 X80.275 Y82.975 E.01339
G1 X89.144 Y91.844 E.39419
G1 X89.11 Y92.344 E.01576
G1 X80.147 Y83.381 E.39837
G1 X80.019 Y83.788 E.01339
G1 X89.076 Y92.845 E.40254
G1 X89.041 Y93.345 E.01576
G1 X79.891 Y84.194 E.40672
G1 X79.82 Y84.418 E.00738
G1 X79.78 Y84.618 E.0064
G1 X89.007 Y93.845 E.41014
G1 X88.973 Y94.346 E.01576
G1 X79.689 Y85.062 E.41263
G1 X79.599 Y85.506 E.01425
G1 X88.939 Y94.846 E.41513
G1 X88.905 Y95.347 E.01576
G1 X79.509 Y85.951 E.41762
G1 X79.419 Y86.395 E.01425
G1 X88.886 Y95.863 E.4208
G1 X88.915 Y96.426 E.01774
G1 X79.329 Y86.839 E.4261
G1 X79.238 Y87.284 E.01425
G1 X88.945 Y96.99 E.43141
G1 X88.974 Y97.553 E.01774
G1 X79.148 Y87.728 E.43671
G1 X79.058 Y88.172 E.01425
G1 X89.003 Y98.117 E.44201
G1 X89.032 Y98.681 E.01774
G1 X78.968 Y88.617 E.44731
G1 X78.878 Y89.061 E.01425
G1 X89.061 Y99.244 E.45261
G1 X89.09 Y99.808 E.01774
G1 X78.818 Y89.536 E.45653
G1 X78.772 Y90.024 E.0154
G1 X89.167 Y100.42 E.46204
G1 X89.277 Y101.064 E.02056
G1 X78.725 Y90.512 E.46902
G1 X78.678 Y91 E.0154
G1 X89.388 Y101.709 E.47599
G1 X89.498 Y102.354 E.02056
G1 X78.632 Y91.488 E.48296
G1 X78.585 Y91.976 E.0154
G1 X89.608 Y102.999 E.48994
G1 X89.718 Y103.643 E.02056
G1 X78.538 Y92.463 E.49691
G1 X78.492 Y92.951 E.0154
G1 X89.849 Y104.309 E.5048
G1 X90.078 Y105.072 E.02504
G1 X78.445 Y93.439 E.51704
G1 X78.398 Y93.927 E.0154
G1 X90.306 Y105.835 E.52927
G1 X90.535 Y106.598 E.02504
G1 X78.392 Y94.455 E.53971
G1 X78.397 Y94.995 E.01696
G1 X90.764 Y107.361 E.54965
G1 X90.992 Y108.125 E.02504
M73 Q1 S99
G1 X78.402 Y95.535 E.55958
G1 X78.407 Y96.074 E.01696
G1 X91.306 Y108.973 E.57329
G1 X91.716 Y109.917 E.03235
G1 X78.412 Y96.614 E.59128
G1 X78.418 Y97.153 E.01696
G1 X92.126 Y110.861 E.60927
G1 X92.551 Y111.822 E.03301
G1 X78.423 Y97.693 E.62796
G1 X78.428 Y98.233 E.01696
G1 X93.191 Y112.996 E.65616
G1 X93.931 Y114.271 E.04633
G1 X78.433 Y98.772 E.68884
G1 X78.487 Y99.361 E.01858
G1 X94.672 Y115.546 E.71934
G1 X94.863 Y115.876 E.012
G1 X96.1 Y117.509 E.06439
G1 X78.363 Y99.772 E.78834
M204 S1000
;WIPE_START
G1 F8640
G1 X80.691 Y102.099 E-.76
;WIPE_END
G1 E-.04 F2100
G1 Z.6 F720
G1 X163.138 Y69.623 F10800
G1 Z.2 F720
G1 E.8 F2100
M204 S800
G1 F1200
G1 X160.279 Y66.764 E.12708
G1 X159.801 Y66.82 E.01514
G1 X163.607 Y70.626 E.16917
G1 X164.4 Y71.954 E.04863
G1 X159.322 Y66.876 E.22571
G1 X158.844 Y66.932 E.01514
G1 X165.194 Y73.282 E.28225
G1 X165.822 Y74.334 E.0385
G1 X165.919 Y74.541 E.00719
G1 X158.365 Y66.988 E.33572
G1 X157.887 Y67.044 E.01514
G1 X166.38 Y75.537 E.37748
G1 X166.841 Y76.533 E.03449
G1 X157.408 Y67.1 E.41924
G1 X156.93 Y67.156 E.01514
G1 X167.302 Y77.528 E.461
G1 X167.763 Y78.524 E.03449
G1 X156.451 Y67.212 E.50276
G1 X155.973 Y67.268 E.01514
M73 P2 R99
M73 Q2 S99
G1 X168.082 Y79.377 E.5382
G1 X168.359 Y80.189 E.02695
G1 X155.495 Y67.324 E.57177
G1 X155.016 Y67.381 E.01514
G1 X168.636 Y81 E.60534
G1 X168.913 Y81.812 E.02695
G1 X154.538 Y67.437 E.63892
G1 X154.059 Y67.493 E.01514
